public/library/hemi-text-light.svg

<svg width="1000" height="1004" viewBox="0 0 1000 1004" fill="none" xmlns="http://www.w3.org/2000/svg">
<path d="M583.805 7.14395L522.856 366.891H476.273L415.324 7.14395C414.454 2.33566 410.1 -0.724162 405.311 0.150073C170.222 44.736 0 251.93 0 501.523C0 751.117 170.222 958.311 405.747 1002.9C410.535 1003.77 414.889 1000.71 415.76 995.903L476.709 636.155H523.291L584.24 995.903C585.111 1000.71 589.465 1003.77 594.253 1002.9C829.778 958.748 1000 751.117 1000 501.523C1000 251.93 829.343 44.736 593.818 0.150073C589.029 -0.724162 584.676 2.33566 583.805 7.14395Z" fill="#FF4600"/>
</svg>

<svg xmlns="http://www.w3.org/2000/svg" width="1000" height="1004" fill="none" viewBox="0 0 1000 1004"><path fill="#ff4600" d="m583.805 7.144-60.949 359.747h-46.583L415.324 7.144c-.87-4.808-5.224-7.868-10.013-6.994C170.222 44.736 0 251.93 0 501.523 0 751.117 170.222 958.311 405.747 1002.9c4.788.87 9.142-2.19 10.013-6.997l60.949-359.748h46.582l60.949 359.748c.871 4.807 5.225 7.867 10.013 6.997C829.778 958.748 1000 751.117 1000 501.523 1000 251.93 829.343 44.736 593.818.15c-4.789-.874-9.142 2.186-10.013 6.994"/></svg>
